X:109
T:Highlandman that kissed his granny, The
R:Reel
O:Scotland
M:C
K:Am
cgge gcge|cgge dBGB|cgge gcge|a^fge dBGB:|
|:\
ce (3AAA ABcA|ceAc BcdB|ce (3AAA ABcd\
|1 edge dBGB:|2 edge dBG2:|
